icons/chat-settings-line.svg

<svg xmlns="http://www.w3.org/2000/svg" width="24" height="24" fill="none"><g clip-path="url(#a)"><g><path fill="#121212" d="M22 12H20V5H4V18.385L5.763 17H12V19H6.455L2 22.5V4C2 3.73478 2.10536 3.48043 2.29289 3.29289C2.48043 3.10536 2.73478 3 3 3H21C21.2652 3 21.5196 3.10536 21.7071 3.29289C21.8946 3.48043 22 3.73478 22 4V12ZM14.145 19.071C13.9505 18.3702 13.9505 17.6298 14.145 16.929L13.17 16.366L14.17 14.634L15.146 15.197C15.6551 14.678 16.2961 14.3077 17 14.126V13H19V14.126C19.715 14.31 20.353 14.686 20.854 15.197L21.83 14.634L22.83 16.366L21.855 16.929C22.0495 17.6298 22.0495 18.3702 21.855 19.071L22.83 19.634L21.83 21.366L20.854 20.803C20.353 21.313 19.714 21.69 19 21.874V23H17V21.874C16.2961 21.6923 15.6551 21.322 15.146 20.803L14.17 21.366L13.17 19.634L14.145 19.071ZM18 20C18.5304 20 19.0391 19.7893 19.4142 19.4142C19.7893 19.0391 20 18.5304 20 18C20 17.4696 19.7893 16.9609 19.4142 16.5858C19.0391 16.2107 18.5304 16 18 16C17.4696 16 16.9609 16.2107 16.5858 16.5858C16.2107 16.9609 16 17.4696 16 18C16 18.5304 16.2107 19.0391 16.5858 19.4142C16.9609 19.7893 17.4696 20 18 20Z"/></g></g><defs><clipPath id="a"><rect width="24" height="24" fill="white"/></clipPath></defs></svg>

<svg width="24" height="24" fill="none" xmlns="http://www.w3.org/2000/svg"><g clip-path="url(#a)"><path d="M22 12h-2V5H4v13.385L5.763 17H12v2H6.455L2 22.5V4a1 1 0 0 1 1-1h18a1 1 0 0 1 1 1v8Zm-7.855 7.071a4.005 4.005 0 0 1 0-2.142l-.975-.563 1-1.732.976.563c.51-.519 1.15-.89 1.854-1.071V13h2v1.126a3.99 3.99 0 0 1 1.854 1.071l.976-.563 1 1.732-.975.563c.194.7.194 1.441 0 2.142l.975.563-1 1.732-.976-.563c-.501.51-1.14.887-1.854 1.071V23h-2v-1.126a3.996 3.996 0 0 1-1.854-1.071l-.976.563-1-1.732.975-.563ZM18 20a2 2 0 1 0 0-4 2 2 0 0 0 0 4Z" /></g><defs><clipPath id="a"><path fill="#fff" d="M0 0h24v24H0z"/></clipPath></defs></svg>
